icon-themes/breeze_svg/cmd/sc_signaturelinedialog.svg

<svg viewBox="0 0 16 16" xmlns="http://www.w3.org/2000/svg"><path d="m3 2v12h1 3v-1h-3v-5-5h5v3h3v1h1v-2l-3-3zm9 6-1 1-1 1-2 2v1 1h2l.59375-.59375.40625-.40625 1-1 1-1 1-1zm-.3125 1.6875.59375.59375-.28125.28125-1.40625 1.40625v.03125l-1.28125 1.28125-.59375-.59375 1.875-1.90625z" fill="#232629"/></svg>

<?xml version="1.0" encoding="UTF-8" standalone="no"?>
<svg
   xmlns:dc="http://purl.org/dc/elements/1.1/"
   xmlns:cc="http://creativecommons.org/ns#"
   xmlns:rdf="http://www.w3.org/1999/02/22-rdf-syntax-ns#"
   xmlns:svg="http://www.w3.org/2000/svg"
   xmlns="http://www.w3.org/2000/svg"
   xmlns:sodipodi="http://sodipodi.sourceforge.net/DTD/sodipodi-0.dtd"
   xmlns:inkscape="http://www.inkscape.org/namespaces/inkscape"
   viewBox="0 0 16 16"
   version="1.1"
   id="svg4"
   sodipodi:docname="sc_signaturelinedialog.svg"
   inkscape:version="0.92.4 (unknown)">
  <metadata
     id="metadata10">
    <rdf:RDF>
      <cc:Work
         rdf:about="">
        <dc:format>image/svg+xml</dc:format>
        <dc:type
           rdf:resource="http://purl.org/dc/dcmitype/StillImage" />
        <dc:title></dc:title>
      </cc:Work>
    </rdf:RDF>
  </metadata>
  <defs
     id="defs8" />
  <sodipodi:namedview
     pagecolor="#ffffff"
     bordercolor="#666666"
     borderopacity="1"
     objecttolerance="10"
     gridtolerance="10"
     guidetolerance="10"
     inkscape:pageopacity="0"
     inkscape:pageshadow="2"
     inkscape:window-width="1360"
     inkscape:window-height="714"
     id="namedview6"
     showgrid="true"
     inkscape:zoom="20.85965"
     inkscape:cx="5.4832137"
     inkscape:cy="5.1579501"
     inkscape:window-x="0"
     inkscape:window-y="28"
     inkscape:window-maximized="1"
     inkscape:current-layer="svg4">
    <inkscape:grid
       type="xygrid"
       id="grid817" />
  </sodipodi:namedview>
  <path
     d="M 3 2 L 3 14 L 4 14 L 7 14 L 7 13 L 4 13 L 4 8 L 4 3 L 9 3 L 9 6 L 12 6 L 12 7 L 13 7 L 13 5 L 10 2 L 3 2 z M 7 8 L 5 9 L 5 10 L 7 9 L 7 10 L 7 12 L 8 12 L 8 8 L 7 8 z M 8 12 L 8 13 L 8 14 L 10 14 L 10.59375 13.40625 L 11 13 L 12 12 L 13 11 L 14 10 L 12 8 L 11 9 L 10 10 L 8 12 z M 11.6875 9.6875 L 12.28125 10.28125 L 12 10.5625 L 10.59375 11.96875 L 10.59375 12 L 9.3125 13.28125 L 8.71875 12.6875 L 10.59375 10.78125 L 11.6875 9.6875 z "
     id="path2" />
</svg>
